src/main/webapp/scripts/pdfjs/v54530/web/images/editor-toolbar-delete.svg

<svg fill="none" height="16" viewBox="0 0 16 16" width="16" xmlns="http://www.w3.org/2000/svg"><path clip-rule="evenodd" d="m11 3h2.6c.4 0 .7.3.7.6s-.3.6-.6.6h-.4v9.8c0 1.1-.9 2-2 2h-6.49995c-1.1 0-2-.9-2-2v-9.8h-.4c-.4 0-.6-.2-.6-.6s.2-.6.6-.6h2.6v-1c0-1.1.9-2 2-2h2c1.09995 0 1.99995.9 1.99995 2zm-4.09995-1.8-.6.6v1.2h3.5v-1.2l-.6-.6zm4.49995 13.5.6-.6v-9.9h-7.99995v9.9l.6.6zm-4.39995-2.3c0 .3-.3.6-.6.6s-.6-.3-.6-.6v-4.8c-.1-.3.2-.6.6-.6s.6.3.6.6zm3.20005 0c0 .3-.30004.6-.60004.6s-.6-.3-.6-.6v-4.8c0-.3.3-.6.6-.6s.60004.3.60004.6z" fill="#000" fill-rule="evenodd"/></svg>

<svg width="16" height="16" viewBox="0 0 16 16" fill="none" xmlns="http://www.w3.org/2000/svg">
    <path fill-rule="evenodd" clip-rule="evenodd"
        d="M11 3H13.6C14 3 14.3 3.3 14.3 3.6C14.3 3.9 14 4.2 13.7 4.2H13.3V14C13.3 15.1 12.4 16 11.3 16H4.80005C3.70005 16 2.80005 15.1 2.80005 14V4.2H2.40005C2.00005 4.2 1.80005 4 1.80005 3.6C1.80005 3.2 2.00005 3 2.40005 3H5.00005V2C5.00005 0.9 5.90005 0 7.00005 0H9.00005C10.1 0 11 0.9 11 2V3ZM6.90005 1.2L6.30005 1.8V3H9.80005V1.8L9.20005 1.2H6.90005ZM11.4 14.7L12 14.1V4.2H4.00005V14.1L4.60005 14.7H11.4ZM7.00005 12.4C7.00005 12.7 6.70005 13 6.40005 13C6.10005 13 5.80005 12.7 5.80005 12.4V7.6C5.70005 7.3 6.00005 7 6.40005 7C6.80005 7 7.00005 7.3 7.00005 7.6V12.4ZM10.2001 12.4C10.2001 12.7 9.90006 13 9.60006 13C9.30006 13 9.00006 12.7 9.00006 12.4V7.6C9.00006 7.3 9.30006 7 9.60006 7C9.90006 7 10.2001 7.3 10.2001 7.6V12.4Z"
        fill="black" />
</svg>
